X:1
T:Domine, quinque talenta tradidisti mihi
T:Jan Tollius
T:Domine, quinque talenta tradidisti mihi
C:Jan Tollius
%%score [ 1 2 3 ]
L:1/8
Q:1/4=70
M:4/4
K:F
V:1 treble nm="Soprano" snm="S"
V:2 treble nm="Alt" snm="A"
V:3 treble-8 nm="Tenor" snm="T"
V:1
 z8 | z8 | z8 | z2 F>G A>B c>d | e>f g/f/ f2 e f2 | g6 e2 | e4 g4- | g2 e2 e4 | f4 f4 | f4 f4 | %10
w: |||tra- di- di- sti tra- di-|di- sti mi- * * * hi,|Do- mi-|ne, Do-|* mi- ne,|quin- que|ta- len-|
 f4 F>G A>B | c>d e>f g2 c2 | z4 F>G A>B | c>d e>f g4- | g2 fe dc d2 | e4 c4- | c2 d2 c4 | %17
w: ta tra- di- di- sti|tra- di- di- sti mi- hi,|tra- di- di- sti|tra- di- di- sti mi-||hi, ec-|* ce ec-|
 c4 z2 c2 | c2 c2 c2 c2 | z F2 f2 e/d/ ee | f/e/d/c/ d>d c4 | z F2 f2 e/d/ ee | f/e/d/c/ d>d c4- | %23
w: ce a-|li- a quin- que|su- per- * * * lu-|cra- * * * * tus sum.|su- per- * * * lu-|cra- * * * * tus sum.|
 c2 =BA B4 | c6 d2 | c4 c4 | z2 c2 c2 c2 | c2 c2 z F2 f- | fe/d/ ee f/e/d/c/ d>d | c4 z F2 f- | %30
w: _ _ _ _|ec- ce|ec- ce|a- li- a|quin- que su- per-|* * * * lu- cra- * * * * tus|sum. su- per-|
 fe/d/ ee f/e/d/c/ d>d | c6 =BA | =B8 || f3 e/d/ f2 c2 | z f/f/ e2 f2 z c- | cA B>A F/G/A/F/ G2 | %36
w: * * * * lu- cra- * * * * tus|sum. _ _|_|Eu- * * * ge|ser- ve bo- ne, et|_ fi- de- * * * * * *|
 F4 f3 e/d/ | f2 c2 z f/f/ e2 | f2 z c2 A B>A | F/G/A/F/ G2 F2 z F | FF c2 A2 z g | %41
w: lis: Eu- * *|* ge ser- ve bo-|ne, et fi- de- *|* * * * * lis: qui-|a in pau- ca fu-|
 gf/e/ d2 e2 z e | ed/c/ =B2 c4- | c2 z c/d/ e>e ef | c>c dd/e/ ^f>f fg | ^f>f f2 z =f e/d/c/B/ | %46
w: i- sti fi- de- lis, fu-|i- sti fi- de- lis,|_ su- pra mul- ta te con-|sti- tu- am; su- pra mul- ta te con-|sti- tu- am; in- tra in gau- di-|
 Aa g/f/e/d/ c2 z F | GA G2 A4 | z2 d2 G2 A2 | B2 c2 d2 z d | cB c2 F2 z B | ^cd c2 dA G/F/E/D/ | %52
w: um in- tra in gau- di- um do-|mi- ni tu- i.|in- tra in|gau- di- um do-|mi- ni tu- i. do-|mi- ni tu- i. in- tra in gau- di-|
 Cc B/A/G/F/ E2 z A | =Bc B2 c4- | c8 |] %55
w: um in- tra in gau- di- um do-|mi- ni tu- i.|_|
V:2
 c6 A2 | A4 c4- | c2 A2 A4 | c4 c4 | c4 c4 | c4 C>D E>F | G>A =B>c d/c/ c2 B | c2 C>D E>F G>G | %8
w: Do- mi-|ne, Do-|* mi- ne,|quin- que|ta- len-|ta tra- di- di- sti|tra- di- di- sti mi- * * *|hi, tra- di- di- sti tra- di-|
 A>B c2 A4 | D>E F>G A>B c>d | c2 F2 z2 F,>G, | A,>B, C>D E>F G2 | C2 F,>G, A,>B, C>D | %13
w: di- sti mi- hi,|tra- di- di- sti tra- di- di- sti|mi- hi, tra- di-|di- sti tra- di- di- sti mi-|hi, tra- di- di- sti tra- di-|
 E>F G2 E2 C>D | E>F G>A =Bc B2 | c4 z4 | A6 G2 | A4 G4 | z4 z C2 c- | c=B/A/ BB c3/2B/4A/4 G>G | %20
w: di- sti mi- hi, tra- di-|di- sti tra- di- di- sti mi-|hi,|ec- ce|ec- ce|su- per-|* * * * lu- cra- * * * tus|
 F4 z2 C2 | C2 C2 C2 C2 | z G,2 G2 ^F/E/ FF | G/^F/E/D/ E>E D4 | z4 A4- | A2 G2 A4 | G4 z4 | %27
w: sum. a-|li- a quin- que|su- per- * * * lu-|cra- * * * * tus sum.|ec-|* ce ec-|ce|
 z C2 c2 ^B/A/ BB | c3/2B/4A/4 G>G F4 | z2 C2 C2 C2 | C2 C2 z G,2 G- | G^F/E/ FF G/F/E/D/ E>E | %32
w: su- per- * * * lu-|cra- * * * tus sum.|a- li- a|quin- que su- per-|* * * * lu- cra- * * * * tus|
 D8 || z2 F3 E/D/ F2 | C2 z G/G/ F2 G2 | z F2 D D/C/ F2 E | F4 z2 F2- | FE/D/ F2 C2 z G/G/ | %38
w: sum.|Eu- * * *|ge ser- ve bo- ne,|et fi- de- * * *|lis: Eu-|* * * * ge ser- ve|
 F2 G2 z F2 D | D/C/ F2 E F4 | z CCC F2 EE | ED/C/ =B,2 C2 z G | GF/E/ D2 E2 z E/F/ | %43
w: bo- ne, et fi-|de- * * * lis:|qui- a in pau- ca fu-|i- sti fi- de- lis, fu-|i- sti fi- de- lis, su- pra|
 G>G GA G>G GF/G/ | A>A AB A>A A2 | z2 A2 D2 E2 | F2 G2 A2 z A | GF G2 C2 z A | %48
w: mul- ta te con- sti- tu- am; su- pra|mul- ta te con- sti- tu- am;|in- tra in|gau- di- um do-|mi- ni tu- i. do-|
 =Bc B2 c_B A/G/F/E/ | Dd c/B/A/G/ F2 z B, | CD C2 D2 z F | ED E2 DF E/D/C/B,/ | %52
w: mi- ni tu- i. in- tra in gau- di-|um in- tra in gau- di- um do-|mi- ni tu- i. do-|mi- ni tu- i. in- tra in gau- di-|
 A,A G/F/E/D/ C2 z F | GA D2 E4- | E8 |] %55
w: um in- tra in gau- di- um do-|mi- ni tu- i.|_|
V:3
 z8 | f4 f4 | f4 f4 | f4 F>G A>B | c>d ef c2 F2 | z4 z2 C>D | E>F G>A =Bc G2 | c8 | f6 d2 | %9
w: |quin- que|ta- len-|ta tra- di- di- sti|tra- di- di- sti mi- hi,|tra- di-|di- sti tra- di- di- sti mi-|hi,|Do- mi-|
 d4 f4- | f2 d2 d4 | c4 c4 | c4 c4 | c4 C>D E>F | G>A =Bc G4 | C4 z4 | f6 e2 | f4 c4 | %18
w: ne, Do-|* mi- ne,|quin- que|ta- len-|ta tra- di- di- sti|tra- di- di- sti mi-|hi,|ec- ce|ec- ce|
 z F2 f2 e/d/ ee | f/e/d/c/ d>d c4 | z2 F2 F2 F2 | F2 F2 z C2 c- | c=B/A/ BB c/B/A/G/ A>A | G8 | %24
w: su- per- * * * lu-|cra- * * * * tus sum.|a- li- a|quin- que su- per-|* * * * lu- cra- * * * * tus|sum.|
 z4 f4- | f2 e2 f4 | c4 z F2 f- | fe/d/ ee f/e/d/c/ d>d | c4 z2 F2 | F2 F2 F2 F2 | %30
w: ec-|* ce ec-|ce su- per-|* * * * lu- cra- * * * * tus|sum. a-|li- a quin- que|
 z C2 c2 =B/A/ BB | c/=B/A/G/ A>A G4- | G8 || z4 F3 E/D/ | F2 C2 z F/F/ E2 | F2 B3 F c2 | F4 z4 | %37
w: su- per- * * * lu-|cra- * * * * tus sum.|_|Eu- * *|* ge ser- ve bo-|ne, et fi- de-|lis:|
 F3 E/D/ F2 C2 | z F/F/ E2 F2 B2- | BF c2 F4- | F2 z F FF c2 | G4 z c cB/A/ | G4 C2 z c/d/ | %43
w: Eu- * * * ge|ser- ve bo- ne, et|_ fi- de- lis:|_ qui- a in pau-|ca fu- i- sti fi-|de- lis, su- pra|
 e>e ef c>c cd/e/ | f>f fg d>d d2- | d4 z d c/B/A/G/ | Ff e/d/c/B/ A2 z D | EF E2 F2 z F | %48
w: mul- ta te con- sti- tu- am; su- pra|mul- ta te con- sti- tu- am;|_ in- tra in gau- di-|um in- tra in gau- di- um do-|mi- ni tu- i. do-|
 EC D2 CG F/E/D/C/ | B,B A/G/F/E/ D2 z G | AB A2 B4 | z2 A2 D2 E2 | F2 G2 A2 z A | GF G2 C4- | %54
w: mi- ni tu- i. in- tra in gau- di-|um in- tra in gau- di- um do-|mi- ni tu- i.|in- tra in|gau- di- um do-|mi- ni tu- i.|
 C8 |] %55
w: _|

